packages/ffe-icons/icons/filled/sm/local_hospital.svg

<svg xmlns="http://www.w3.org/2000/svg" height="20" viewBox="0 -960 960 960" width="20"><path d="M447.001-447.001V-331q0 13.75 9.645 23.375 9.644 9.624 23.422 9.624t23.354-9.624q9.577-9.625 9.577-23.375v-116.001H629q13.75 0 23.375-9.645 9.624-9.644 9.624-23.422t-9.624-23.354q-9.625-9.577-23.375-9.577H512.999V-629q0-13.75-9.645-23.375-9.644-9.624-23.422-9.624t-23.354 9.624q-9.577 9.625-9.577 23.375v116.001H331q-13.75 0-23.375 9.645-9.624 9.644-9.624 23.422t9.624 23.354q9.625 9.577 23.375 9.577h116.001Zm-218.692 283q-27.008 0-45.658-18.65-18.65-18.65-18.65-45.658v-503.382q0-27.008 18.65-45.658 18.65-18.65 45.658-18.65h503.382q27.008 0 45.658 18.65 18.65 18.65 18.65 45.658v503.382q0 27.008-18.65 45.658-18.65 18.65-45.658 18.65H228.309Z"/></svg>

<svg xmlns="http://www.w3.org/2000/svg" height="20" viewBox="0 -960 960 960" width="20"><path d="M447-447v116q0 13.75 9.65 23.37 9.64 9.63 23.42 9.63 13.78 0 23.35-9.63Q513-317.25 513-331v-116h116q13.75 0 23.37-9.65 9.63-9.64 9.63-23.42 0-13.78-9.63-23.35Q642.75-513 629-513H513v-116q0-13.75-9.65-23.37-9.64-9.63-23.42-9.63-13.78 0-23.35 9.63Q447-642.75 447-629v116H331q-13.75 0-23.37 9.65-9.63 9.64-9.63 23.42 0 13.78 9.63 23.35Q317.25-447 331-447h116ZM228.31-164q-27.01 0-45.66-18.65Q164-201.3 164-228.31v-503.38q0-27.01 18.65-45.66Q201.3-796 228.31-796h503.38q27.01 0 45.66 18.65Q796-758.7 796-731.69v503.38q0 27.01-18.65 45.66Q758.7-164 731.69-164H228.31Z"/></svg>
